vendor/shopware/storefront/Resources/app/storefront/dist/assets/icon/default/arrow-scroll.svg

<svg xmlns="http://www.w3.org/2000/svg" width="24" height="24" viewBox="0 0 24 24">
  <path fill="#758CA3" fill-rule="evenodd" d="M13,11 L20.5857864,11 L19.2928932,9.70710678 C18.9023689,9.31658249 18.9023689,8.68341751 19.2928932,8.29289322 C19.6834175,7.90236893 20.3165825,7.90236893 20.7071068,8.29289322 L23.7071068,11.2928932 C24.0976311,11.6834175 24.0976311,12.3165825 23.7071068,12.7071068 L20.7071068,15.7071068 C20.3165825,16.0976311 19.6834175,16.0976311 19.2928932,15.7071068 C18.9023689,15.3165825 18.9023689,14.6834175 19.2928932,14.2928932 L20.5857864,13 L13,13 L13,20.5857864 L14.2928932,19.2928932 C14.6834175,18.9023689 15.3165825,18.9023689 15.7071068,19.2928932 C16.0976311,19.6834175 16.0976311,20.3165825 15.7071068,20.7071068 L12.7071068,23.7071068 C12.3165825,24.0976311 11.6834175,24.0976311 11.2928932,23.7071068 L8.29289322,20.7071068 C7.90236893,20.3165825 7.90236893,19.6834175 8.29289322,19.2928932 C8.68341751,18.9023689 9.31658249,18.9023689 9.70710678,19.2928932 L11,20.5857864 L11,13 L3.41421356,13 L4.70710678,14.2928932 C5.09763107,14.6834175 5.09763107,15.3165825 4.70710678,15.7071068 C4.31658249,16.0976311 3.68341751,16.0976311 3.29289322,15.7071068 L0.292893219,12.7071068 C-0.0976310729,12.3165825 -0.0976310729,11.6834175 0.292893219,11.2928932 L3.29289322,8.29289322 C3.68341751,7.90236893 4.31658249,7.90236893 4.70710678,8.29289322 C5.09763107,8.68341751 5.09763107,9.31658249 4.70710678,9.70710678 L3.41421356,11 L11,11 L11,3.41421356 L9.70710678,4.70710678 C9.31658249,5.09763107 8.68341751,5.09763107 8.29289322,4.70710678 C7.90236893,4.31658249 7.90236893,3.68341751 8.29289322,3.29289322 L11.2928932,0.292893219 C11.6834175,-0.0976310729 12.3165825,-0.0976310729 12.7071068,0.292893219 L15.7071068,3.29289322 C16.0976311,3.68341751 16.0976311,4.31658249 15.7071068,4.70710678 C15.3165825,5.09763107 14.6834175,5.09763107 14.2928932,4.70710678 L13,3.41421356 L13,11 Z"/>
</svg>

<svg xmlns="http://www.w3.org/2000/svg" width="24" height="24" viewBox="0 0 24 24"><path fill="#758CA3" fill-rule="evenodd" d="M13 11h7.5858l-1.293-1.2929c-.3904-.3905-.3904-1.0237 0-1.4142.3906-.3905 1.0238-.3905 1.4143 0l3 3c.3905.3905.3905 1.0237 0 1.4142l-3 3c-.3905.3905-1.0237.3905-1.4142 0-.3905-.3905-.3905-1.0237 0-1.4142L20.5858 13H13v7.5858l1.2929-1.293c.3905-.3904 1.0237-.3904 1.4142 0 .3905.3906.3905 1.0238 0 1.4143l-3 3c-.3905.3905-1.0237.3905-1.4142 0l-3-3c-.3905-.3905-.3905-1.0237 0-1.4142.3905-.3905 1.0237-.3905 1.4142 0L11 20.5858V13H3.4142l1.293 1.2929c.3904.3905.3904 1.0237 0 1.4142-.3906.3905-1.0238.3905-1.4143 0l-3-3c-.3905-.3905-.3905-1.0237 0-1.4142l3-3c.3905-.3905 1.0237-.3905 1.4142 0 .3905.3905.3905 1.0237 0 1.4142L3.4142 11H11V3.4142l-1.2929 1.293c-.3905.3904-1.0237.3904-1.4142 0-.3905-.3906-.3905-1.0238 0-1.4143l3-3c.3905-.3905 1.0237-.3905 1.4142 0l3 3c.3905.3905.3905 1.0237 0 1.4142-.3905.3905-1.0237.3905-1.4142 0L13 3.4142V11z"/></svg>
